X:140
%%topspace -50
T:The Peacock Followed the Hen
M:9/8
L:1/8
K:Ador
"Am"cde cAA cAA | "Am"cde cAc "G"B2G | "Am"cde cAA cAA | "G"Bcd dgd B2G :|
|: "C"cde gee gee | "C"cde geg "D"f2d | "C"cde gee gee | "G"Bcd dgd B2G :|

